client/public/img/game/shared/residues/garage_door_residue.svg

<?xml version="1.0" encoding="UTF-8" standalone="no"?>
<!-- Created with Inkscape (http://www.inkscape.org/) -->

<svg
   width="435"
   height="46.925999"
   viewBox="0 0 115.09376 12.415837"
   version="1.1"
   id="svg1120"
   xmlns="http://www.w3.org/2000/svg"
   xmlns:svg="http://www.w3.org/2000/svg">
  <defs
     id="defs1117" />
  <g
     id="layer1">
    <g
       id="g933"
       transform="rotate(15,66.105131,-7.7530335)">
      <path
         id="rect521-5-8"
         style="display:inline;fill:#808080;fill-opacity:1;stroke:#2e2e2e;stroke-width:0.926041;stroke-miterlimit:4;stroke-dasharray:none;stroke-opacity:1"
         d="m 66.145727,5.248108 c 0,-0.568191 -0.457588,-1.025779 -1.025778,-1.025779 -0.568205,0 -1.025258,0.457588 -1.025258,1.025779 V 9.912926 H 54.967094 V 5.248108 c 0,-0.568191 -0.457068,-1.025779 -1.025272,-1.025779 -0.568191,0 -1.025779,0.457588 -1.025779,1.025779 v 5.690611 c 0,0.0178 0,0.03519 0.0014,0.05269 0.025,0.543414 0.432404,0.972553 0.934832,0.972553 h 11.268032 0.08993 c 0.502414,0 0.909844,-0.429139 0.934818,-0.972553 0.0014,-0.0175 0.0014,-0.03499 0.0014,-0.05269 z" />
    </g>
    <path
       id="rect985"
       style="fill:#a29e99;fill-opacity:1;stroke:#423f3c;stroke-width:0.555625;stroke-linecap:square;stroke-linejoin:miter;stroke-miterlimit:4;stroke-dasharray:none;stroke-opacity:1"
       d="M 7.1736393,1.3854241 11.39244,3.905762 7.734901,3.4457415 10.543666,4.6595124 7.6415282,4.5030148 12.030806,5.95785 7.8539999,5.5908795 9.7101493,6.3765948 5.8891192,6.1793183 25.064198,11.317265 20.609065,9.0380133 24.358044,8.9431371 20.379741,7.7075608 23.536357,7.8407621 20.560839,6.5844494 26.348718,6.5233708 Z" />
    <path
       style="fill:#a29e99;fill-opacity:1;stroke:#423f3c;stroke-width:0.555625;stroke-linecap:square;stroke-linejoin:miter;stroke-miterlimit:4;stroke-dasharray:none;stroke-opacity:1"
       d="m 58.405227,1.2793099 5.60609,2.6678987 -4.120985,-0.197935 5.294665,1.6278838 L 61.31174,4.8716401 63.887495,6.0545409 60.097485,5.3321874 62.749096,6.6033582 57.12084,6.072705 76.295919,11.210652 75.376952,9.8403934 72.958188,8.8482865 75.508457,8.6847339 73.603232,7.768705 76.338157,7.5149976 74.386983,6.6925856 77.580306,6.4172569 Z"
       id="rect985-6" />
    <path
       id="rect985-5"
       style="fill:#a29e99;fill-opacity:1;stroke:#423f3c;stroke-width:0.555625;stroke-linecap:square;stroke-linejoin:miter;stroke-miterlimit:4;stroke-dasharray:none;stroke-opacity:1"
       d="m 87.763549,6.397779 4.641685,-0.01967 -2.999139,1.4616592 3.471092,-0.768508 -3.537348,2.0087221 4.780233,-0.8223701 -3.976001,1.3799429 1.280864,0.098163 -2.377,1.4554549 19.175075,-5.1379464 -4.59197,0.031494 1.7306,-0.9687472 -3.66381,0.5344599 4.79395,-1.8254129 -3.10568,0.6946712 1.68923,-1.1630985 -2.36724,0.3218632 4.23054,-2.4186251 z" />
    <path
       id="rect985-7"
       style="fill:#a29e99;fill-opacity:1;stroke:#423f3c;stroke-width:0.555625;stroke-linecap:square;stroke-linejoin:miter;stroke-miterlimit:4;stroke-dasharray:none;stroke-opacity:1"
       d="M 31.854272,6.4527693 36.394784,6.4767936 33.582342,7.8445582 37.694816,7.073785 34.090168,8.4200283 38.85072,7.7837597 34.925612,9.1340158 37.199314,8.9522392 33.138659,11.246165 52.313738,6.1082177 50.573621,5.4681132 45.468265,6.3749246 49.823015,4.5516356 46.022259,5.0002766 50.33449,3.5853459 46.382504,3.9188258 51.029352,1.3148223 Z" />
  </g>
</svg>

<svg xmlns="http://www.w3.org/2000/svg" width="435" height="46.926" viewBox="0 0 115.094 12.416"><path d="M66.146 5.248c0-.568-.458-1.026-1.026-1.026s-1.025.458-1.025 1.026v4.665h-9.128V5.248c0-.568-.457-1.026-1.025-1.026s-1.026.458-1.026 1.026v5.69l.001.053c.025.544.433.973.935.973H65.21c.503 0 .91-.43.935-.973l.001-.052z" style="display:inline;fill:gray;fill-opacity:1;stroke:#2e2e2e;stroke-width:.926041;stroke-miterlimit:4;stroke-dasharray:none;stroke-opacity:1" transform="rotate(15 66.105 -7.753)"/><path d="m7.174 1.385 4.218 2.52-3.657-.46 2.809 1.215-2.902-.157 4.389 1.455-4.177-.367 1.856.786-3.82-.198 19.174 5.138-4.455-2.279 3.749-.095-3.978-1.235 3.156.133-2.975-1.257 5.788-.06ZM58.405 1.28l5.606 2.667-4.12-.198 5.294 1.628-3.873-.505 2.575 1.183-3.79-.723 2.652 1.271-5.628-.53 19.175 5.138-.919-1.37-2.419-.993 2.55-.163-1.905-.916 2.735-.254-1.951-.822 3.193-.276ZM87.764 6.398l4.641-.02-2.999 1.462 3.471-.769L89.34 9.08l4.78-.822-3.976 1.38 1.28.098-2.376 1.455 19.175-5.138-4.592.032 1.73-.969-3.663.534 4.794-1.825-3.106.695 1.69-1.163-2.368.321 4.23-2.418zM31.854 6.453l4.54.024-2.812 1.368 4.113-.771L34.09 8.42l4.76-.636-3.924 1.35 2.273-.182-4.06 2.294 19.175-5.138-1.74-.64-5.106.907 4.355-1.823-3.8.448 4.311-1.415-3.951.334 4.646-2.604Z" style="fill:#a29e99;fill-opacity:1;stroke:#423f3c;stroke-width:.555625;stroke-linecap:square;stroke-linejoin:miter;stroke-miterlimit:4;stroke-dasharray:none;stroke-opacity:1"/></svg>
